svg/emoji_u1f9b8_1f3fd.svg

<?xml version="1.0" encoding="UTF-8" standalone="no"?>
<svg
   xmlns:dc="http://purl.org/dc/elements/1.1/"
   xmlns:cc="http://creativecommons.org/ns#"
   xmlns:rdf="http://www.w3.org/1999/02/22-rdf-syntax-ns#"
   xmlns:svg="http://www.w3.org/2000/svg"
   xmlns="http://www.w3.org/2000/svg"
   xmlns:sodipodi="http://sodipodi.sourceforge.net/DTD/sodipodi-0.dtd"
   xmlns:inkscape="http://www.inkscape.org/namespaces/inkscape"
   width="128"
   height="128"
   style="enable-background:new 0 0 128 128;"
   version="1.1"
   id="svg2295"
   sodipodi:docname="emoji_u1f9b8.svg"
   inkscape:version="0.92.3 (2405546, 2018-03-11)">
  <metadata
     id="metadata2301">
    <rdf:RDF>
      <cc:Work
         rdf:about="">
        <dc:format>image/svg+xml</dc:format>
        <dc:type
           rdf:resource="http://purl.org/dc/dcmitype/StillImage" />
        <dc:title></dc:title>
      </cc:Work>
    </rdf:RDF>
  </metadata>
  <defs
     id="defs2299" />
  <sodipodi:namedview
     pagecolor="#ffffff"
     bordercolor="#666666"
     borderopacity="1"
     objecttolerance="10"
     gridtolerance="10"
     guidetolerance="10"
     inkscape:pageopacity="0"
     inkscape:pageshadow="2"
     inkscape:window-width="1920"
     inkscape:window-height="1046"
     id="namedview2297"
     showgrid="false"
     inkscape:zoom="2.6074563"
     inkscape:cx="102.64328"
     inkscape:cy="72.972824"
     inkscape:window-x="-11"
     inkscape:window-y="-11"
     inkscape:window-maximized="1"
     inkscape:current-layer="svg2295"
     inkscape:object-paths="true" />
  <path
     inkscape:connector-curvature="0"
     style="fill:#bf8f68"
     d="m 64.17,14.87 c -33.11,0 -42.95,23.36 -42.95,58.91 0,35.56 26.86,48.36 42.95,48.36 16.09,0 42.61,-13.14 42.61,-48.69 0,-35.56 -9.5,-58.58 -42.61,-58.58 z"
     id="XMLID_200_" />
  <path
     inkscape:connector-curvature="0"
     style="fill:#513f35"
     d="m 76.38,100.52 c -1.73,0 -12.38,0 -12.38,0 0,0 -10.65,0 -12.38,0 -1.42,0 -2.03,0.95 -1.09,2.38 1.31,2 6.19,5.85 13.47,5.85 7.28,0 12.16,-3.85 13.47,-5.85 0.94,-1.43 0.33,-2.38 -1.09,-2.38 z"
     id="XMLID_192_" />
  <path
     inkscape:connector-curvature="0"
     style="fill:#99674f"
     d="m 69.98,89.99 c -2.11,0.6 -4.29,0.89 -5.98,0.89 -1.69,0 -3.87,-0.29 -5.98,-0.89 -0.9,-0.26 -1.25,0.6 -0.93,1.17 0.67,1.18 3.36,3.55 6.91,3.55 3.55,0 6.24,-2.37 6.91,-3.55 0.33,-0.57 -0.03,-1.42 -0.93,-1.17 z"
     id="XMLID_160_" />
  <g
     id="XMLID_816_">
    <path
       inkscape:connector-curvature="0"
       style="fill:#444444"
       d="m 49.91,77.19 c 0,3.81 -2.55,6.9 -5.71,6.9 -3.16,0 -5.73,-3.09 -5.73,-6.9 0,-3.82 2.57,-6.91 5.73,-6.91 3.16,0 5.71,3.09 5.71,6.91"
       id="XMLID_806_" />
    <path
       inkscape:connector-curvature="0"
       style="fill:#444444"
       d="m 78.08,77.19 c 0,3.81 2.56,6.9 5.72,6.9 3.15,0 5.72,-3.09 5.72,-6.9 0,-3.82 -2.57,-6.91 -5.72,-6.91 -3.16,0 -5.72,3.09 -5.72,6.91"
       id="XMLID_803_" />
    <path
       inkscape:connector-curvature="0"
       style="fill:#513f35"
       d="m 76.38,100.52 c -1.73,0 -12.38,0 -12.38,0 0,0 -10.65,0 -12.38,0 -1.42,0 -2.03,0.95 -1.09,2.38 1.31,2 6.19,5.85 13.47,5.85 7.28,0 12.16,-3.85 13.47,-5.85 0.94,-1.43 0.33,-2.38 -1.09,-2.38 z"
       id="XMLID_798_" />
    <path
       inkscape:connector-curvature="0"
       style="fill:#99674f"
       d="m 69.98,89.99 c -2.11,0.6 -4.29,0.89 -5.98,0.89 -1.69,0 -3.87,-0.29 -5.98,-0.89 -0.9,-0.26 -1.25,0.6 -0.93,1.17 0.67,1.18 3.36,3.55 6.91,3.55 3.55,0 6.24,-2.37 6.91,-3.55 0.33,-0.57 -0.03,-1.42 -0.93,-1.17 z"
       id="XMLID_793_" />
  </g>
  <path
     style="fill:#00cd00;fill-opacity:0.87860084;stroke:none;stroke-width:0.99999994px;stroke-linecap:butt;stroke-linejoin:miter;stroke-opacity:1"
     d="M 40.322266 67.693359 C 32.967143 67.693359 22.494141 70.845703 22.494141 70.845703 C 22.037809 71.230395 21.625924 71.62001 21.236328 72.013672 C 21.230753 72.601748 21.220703 73.18434 21.220703 73.779297 C 21.220703 77.95359 21.601869 81.804039 22.28125 85.367188 C 25.843702 85.821628 32.725775 86.605469 37.972656 86.605469 C 46.681043 86.770068 56.242082 83.503906 63.400391 83.503906 L 66.277344 83.503906 C 73.435654 83.503906 82.998645 86.770068 91.707031 86.605469 C 96.172651 86.605469 101.80734 86.035978 105.63867 85.580078 C 106.37439 81.863793 106.7793 77.828236 106.7793 73.449219 C 106.7793 72.530855 106.76877 71.626065 106.75586 70.724609 C 105.59808 70.383935 96.26146 67.693359 89.357422 67.693359 C 79.956661 68.139171 73.137728 72.001953 64.839844 72.001953 C 56.541961 72.001953 49.723031 68.139171 40.322266 67.693359 z "
     id="path867" />
  <path
     inkscape:connector-curvature="0"
     style="fill:#444444"
     d="m 49.91,77.19 c 0,3.81 -2.55,6.9 -5.71,6.9 -3.16,0 -5.73,-3.09 -5.73,-6.9 0,-3.82 2.57,-6.91 5.73,-6.91 3.16,0 5.71,3.09 5.71,6.91"
     id="XMLID_196_" />
  <path
     inkscape:connector-curvature="0"
     style="fill:#444444"
     d="m 78.08,77.19 c 0,3.81 2.56,6.9 5.72,6.9 3.15,0 5.72,-3.09 5.72,-6.9 0,-3.82 -2.57,-6.91 -5.72,-6.91 -3.16,0 -5.72,3.09 -5.72,6.91"
     id="XMLID_195_" />
  <path
     inkscape:connector-curvature="0"
     d="M 65.807179,2.1960449 C 41.280936,2.2770194 38.733822,13.714659 38.076503,13.583075 31.010315,12.145778 21.314849,17.520456 15.994666,26.822394 c -13.7420891,24.039284 3.070916,43.007545 3.420117,45.123001 1.838443,10.921427 2.742257,12.824326 2.742257,12.824326 0,0 0.544342,-15.020757 8.853275,-24.79842 5.309912,-6.245153 10.393869,-19.990562 10.393869,-19.990562 0,0 14.923212,5.384799 26.272248,11.974094 9.603031,5.566992 15.590803,12.824325 15.590803,12.824325 0,0 1.797359,-5.566992 0.390283,-11.387029 C 80.617415,40.891701 68.713765,35.253857 68.713765,35.253857 c 0,0 5.94669,1.680219 14.039939,8.897065 17.850326,15.941841 22.092246,44.863271 22.092246,44.863271 6.12129,-5.607479 16.81285,-19.174133 15.5701,-39.41774 C 119.78954,39.494892 110.2276,2.0442179 65.807179,2.1960449 Z"
     style="fill:#6d4c41;fill-opacity:1;stroke-width:1.01959407"
     id="path52"
     sodipodi:nodetypes="ccccccccccccccc" />
</svg>

<svg xmlns="http://www.w3.org/2000/svg" width="128" height="128"><path d="M64.17 14.87c-33.11 0-42.95 23.36-42.95 58.91 0 35.56 26.86 48.36 42.95 48.36 16.09 0 42.61-13.14 42.61-48.69 0-35.56-9.5-58.58-42.61-58.58z" fill="#bf8f68"/><path d="M76.38 100.52H64 51.62c-1.42 0-2.03.95-1.09 2.38 1.31 2 6.19 5.85 13.47 5.85s12.16-3.85 13.47-5.85c.94-1.43.33-2.38-1.09-2.38z" fill="#513f35"/><path d="M69.98 89.99c-2.11.6-4.29.89-5.98.89-1.69 0-3.87-.29-5.98-.89-.9-.26-1.25.6-.93 1.17.67 1.18 3.36 3.55 6.91 3.55 3.55 0 6.24-2.37 6.91-3.55.33-.57-.03-1.42-.93-1.17z" fill="#99674f"/><path d="M49.91 77.19c0 3.81-2.55 6.9-5.71 6.9s-5.73-3.09-5.73-6.9c0-3.82 2.57-6.91 5.73-6.91 3.16 0 5.71 3.09 5.71 6.91M78.08 77.19c0 3.81 2.56 6.9 5.72 6.9 3.15 0 5.72-3.09 5.72-6.9 0-3.82-2.57-6.91-5.72-6.91-3.16 0-5.72 3.09-5.72 6.91" fill="#444"/><path d="M76.38 100.52H64 51.62c-1.42 0-2.03.95-1.09 2.38 1.31 2 6.19 5.85 13.47 5.85s12.16-3.85 13.47-5.85c.94-1.43.33-2.38-1.09-2.38z" fill="#513f35"/><path d="M69.98 89.99c-2.11.6-4.29.89-5.98.89-1.69 0-3.87-.29-5.98-.89-.9-.26-1.25.6-.93 1.17.67 1.18 3.36 3.55 6.91 3.55 3.55 0 6.24-2.37 6.91-3.55.33-.57-.03-1.42-.93-1.17z" fill="#99674f"/><path d="M40.322 67.693c-7.355 0-17.828 3.153-17.828 3.153-.456.384-.868.774-1.258 1.168-.005.588-.015 1.17-.015 1.765 0 4.175.38 8.025 1.06 11.588 3.563.455 10.445 1.238 15.692 1.238 8.708.165 18.27-3.101 25.427-3.101h2.877c7.159 0 16.722 3.266 25.43 3.101 4.466 0 10.1-.569 13.932-1.025.735-3.716 1.14-7.752 1.14-12.13 0-.92-.01-1.824-.023-2.725-1.158-.341-10.495-3.032-17.399-3.032-9.4.446-16.22 4.309-24.517 4.309-8.298 0-15.117-3.863-24.518-4.309z" fill="#00cd00" fill-opacity=".879"/><path d="M49.91 77.19c0 3.81-2.55 6.9-5.71 6.9s-5.73-3.09-5.73-6.9c0-3.82 2.57-6.91 5.73-6.91 3.16 0 5.71 3.09 5.71 6.91M78.08 77.19c0 3.81 2.56 6.9 5.72 6.9 3.15 0 5.72-3.09 5.72-6.9 0-3.82-2.57-6.91-5.72-6.91-3.16 0-5.72 3.09-5.72 6.91" fill="#444"/><path d="M65.807 2.196c-24.526.081-27.073 11.519-27.73 11.387-7.067-1.437-16.762 3.937-22.082 13.24-13.742 24.039 3.07 43.007 3.42 45.122 1.838 10.922 2.742 12.825 2.742 12.825s.544-15.021 8.853-24.799c5.31-6.245 10.394-19.99 10.394-19.99s14.923 5.385 26.272 11.974c9.603 5.567 15.591 12.824 15.591 12.824s1.798-5.567.39-11.387c-3.04-12.5-14.943-18.138-14.943-18.138s5.946 1.68 14.04 8.897c17.85 15.942 22.092 44.863 22.092 44.863 6.121-5.607 16.813-19.174 15.57-39.418-.626-10.101-10.188-47.552-54.609-47.4z" fill="#6d4c41" stroke-width="1.02"/></svg>
